src/components/Characters/PNG/Delete.svg

<svg width="62" height="62" viewBox="0 0 62 62" fill="none" xmlns="http://www.w3.org/2000/svg">
<path d="M31 62C26.8021 62 22.7858 61.1826 18.9512 59.5479C15.1165 57.9131 11.8167 55.7132 9.05176 52.9482C6.28678 50.1833 4.08691 46.8835 2.45215 43.0488C0.817383 39.2142 0 35.1979 0 31C0 26.8021 0.817383 22.7858 2.45215 18.9512C4.08691 15.1165 6.28678 11.8167 9.05176 9.05176C11.8167 6.28678 15.1165 4.08691 18.9512 2.45215C22.7858 0.817383 26.8021 0 31 0C35.1979 0 39.2142 0.817383 43.0488 2.45215C46.8835 4.08691 50.1833 6.28678 52.9482 9.05176C55.7132 11.8167 57.9131 15.1165 59.5479 18.9512C61.1826 22.7858 62 26.8021 62 31C62 35.1979 61.1826 39.2142 59.5479 43.0488C57.9131 46.8835 55.7132 50.1833 52.9482 52.9482C50.1833 55.7132 46.8835 57.9131 43.0488 59.5479C39.2142 61.1826 35.1979 62 31 62ZM45.2891 22.3418C46.0964 21.5749 46.5 20.6263 46.5 19.4961C46.5 18.3659 46.1064 17.4072 45.3193 16.6201C44.5322 15.833 43.5736 15.4395 42.4434 15.4395C41.3132 15.4395 40.3646 15.8431 39.5977 16.6504L30.9395 25.248L22.3418 16.6504C21.5749 15.8431 20.6263 15.4395 19.4961 15.4395C18.3659 15.4395 17.4072 15.833 16.6201 16.6201C15.833 17.4072 15.4395 18.3659 15.4395 19.4961C15.4395 20.6263 15.8431 21.5749 16.6504 22.3418L25.248 31L16.6504 39.5977C15.8431 40.3646 15.4395 41.3132 15.4395 42.4434C15.4395 43.5736 15.833 44.5322 16.6201 45.3193C17.4072 46.1064 18.3659 46.5 19.4961 46.5C20.6263 46.5 21.5749 46.0964 22.3418 45.2891L30.9395 36.6914L39.5977 45.2891C40.3646 46.0964 41.3132 46.5 42.4434 46.5C43.5736 46.5 44.5322 46.1064 45.3193 45.3193C46.1064 44.5322 46.5 43.5736 46.5 42.4434C46.5 41.3132 46.0964 40.3646 45.2891 39.5977L36.6914 31L45.2891 22.3418Z" fill="#B92020"/>
</svg>

<svg xmlns="http://www.w3.org/2000/svg" viewBox="0 0 62 62"><defs><style>.cls-1{fill:#b92020;}</style></defs><g id="Слой_2" data-name="Слой 2"><g id="Слой_1-2" data-name="Слой 1"><path class="cls-1" d="M31,62a30.51,30.51,0,0,1-12-2.45,30.33,30.33,0,0,1-16.5-16.5,30.86,30.86,0,0,1,0-24.1A30.33,30.33,0,0,1,19,2.45a30.86,30.86,0,0,1,24.1,0A30.33,30.33,0,0,1,59.55,19a30.86,30.86,0,0,1,0,24.1,30.33,30.33,0,0,1-16.5,16.5A30.51,30.51,0,0,1,31,62ZM45.29,22.34A3.75,3.75,0,0,0,46.5,19.5a4,4,0,0,0-4.06-4.06,3.74,3.74,0,0,0-2.84,1.21l-8.66,8.6-8.6-8.6a3.75,3.75,0,0,0-2.84-1.21,4,4,0,0,0-4.06,4.06,3.75,3.75,0,0,0,1.21,2.84L25.25,31l-8.6,8.6a3.74,3.74,0,0,0-1.21,2.84A4,4,0,0,0,19.5,46.5a3.75,3.75,0,0,0,2.84-1.21l8.6-8.6,8.66,8.6a3.74,3.74,0,0,0,2.84,1.21,4,4,0,0,0,4.06-4.06,3.74,3.74,0,0,0-1.21-2.84L36.69,31Z"/></g></g></svg>
